OBS Studio/Fluent Dark Grey/entry-clear.svg

<svg viewBox="23 128 1002 768" xmlns="http://www.w3.org/2000/svg"><path d="m22.5 512c0-11.667 2.1667-23.167 6.5-34.5s10.5-21.333 18.5-30l242.5-267c15-16.667 32.833-29.583 53.5-38.75s42.333-13.75 65-13.75h459c21 0 41 4.25 60 12.75s35.583 19.833 49.75 34 25.5 30.75 34 49.75 12.75 39 12.75 60v455c0 21-4.25 41-12.75 60s-19.833 35.583-34 49.75-30.75 25.5-49.75 34-39 12.75-60 12.75h-459c-22.667 0-44.333-4.583-65-13.75s-38.5-22.083-53.5-38.75l-242.5-267c-8-8.667-14.167-18.667-18.5-30s-6.5-22.833-6.5-34.5zm841.5 320c13 0 25.333-2.5 37-7.5s21.917-11.917 30.75-20.75 15.75-19.083 20.75-30.75 7.5-24 7.5-37v-448c0-13-2.5-25.333-7.5-37s-11.917-21.917-20.75-30.75-19.083-15.75-30.75-20.75-24-7.5-37-7.5h-455.5c-13.333 0-26.25 2.833-38.75 8.5s-23.25 13.333-32.25 23l-242.5 267c-5.6667 6.333-8.5 13.5-8.5 21.5 0 7.667 2.8333 14.833 8.5 21.5l242.5 267c9 10 19.667 17.75 32 23.25s25.333 8.25 39 8.25zm-224-275-137.5 137.5c-6.333 6.333-13.833 9.5-22.5 9.5s-16.167-3.167-22.5-9.5-9.5-13.833-9.5-22.5 3.167-16.167 9.5-22.5l137.5-137.5-137.5-137.5c-6.333-6.333-9.5-13.833-9.5-22.5s3.167-16.167 9.5-22.5 13.833-9.5 22.5-9.5 16.167 3.167 22.5 9.5l137.5 137 137.5-137c6.333-6.333 13.833-9.5 22.5-9.5s16.167 3.167 22.5 9.5 9.5 13.833 9.5 22.5-3.167 16.167-9.5 22.5l-137 137.5 137 137.5c6.333 6.333 9.5 13.833 9.5 22.5s-3.167 16.167-9.5 22.5-13.833 9.5-22.5 9.5-16.167-3.167-22.5-9.5z" fill="#fff"></path></svg>

<!-- Exported by Character Map UWP -->
<svg height="100%" viewBox="23 128 1002 768" width="100%" xmlns="http://www.w3.org/2000/svg" xmlns:xlink="http://www.w3.org/1999/xlink">
  <path d="M22.5,512C22.5,500.333 24.6667,488.833 29,477.5C33.3333,466.167 39.5,456.167 47.5,447.5L290,180.5C305,163.833 322.833,150.917 343.5,141.75C364.167,132.583 385.833,128 408.5,128L867.5,128C888.5,128 908.5,132.25 927.5,140.75C946.5,149.25 963.083,160.583 977.25,174.75C991.417,188.917 1002.75,205.5 1011.25,224.5C1019.75,243.5 1024,263.5 1024,284.5L1024,739.5C1024,760.5 1019.75,780.5 1011.25,799.5C1002.75,818.5 991.417,835.083 977.25,849.25C963.083,863.417 946.5,874.75 927.5,883.25C908.5,891.75 888.5,896 867.5,896L408.5,896C385.833,896 364.167,891.417 343.5,882.25C322.833,873.083 305,860.167 290,843.5L47.5,576.5C39.5,567.833 33.3333,557.833 29,546.5C24.6667,535.167 22.5,523.667 22.5,512ZM864,832C877,832 889.333,829.5 901,824.5C912.667,819.5 922.917,812.583 931.75,803.75C940.583,794.917 947.5,784.667 952.5,773C957.5,761.333 960,749 960,736L960,288C960,275 957.5,262.667 952.5,251C947.5,239.333 940.583,229.083 931.75,220.25C922.917,211.417 912.667,204.5 901,199.5C889.333,194.5 877,192 864,192L408.5,192C395.167,192 382.25,194.833 369.75,200.5C357.25,206.167 346.5,213.833 337.5,223.5L95,490.5C89.3333,496.833 86.5,504 86.5,512C86.5,519.667 89.3333,526.833 95,533.5L337.5,800.5C346.5,810.5 357.167,818.25 369.5,823.75C381.833,829.25 394.833,832 408.5,832ZM640,557L502.5,694.5C496.167,700.833 488.667,704 480,704C471.333,704 463.833,700.833 457.5,694.5C451.167,688.167 448,680.667 448,672C448,663.333 451.167,655.833 457.5,649.5L595,512L457.5,374.5C451.167,368.167 448,360.667 448,352C448,343.333 451.167,335.833 457.5,329.5C463.833,323.167 471.333,320 480,320C488.667,320 496.167,323.167 502.5,329.5L640,466.5L777.5,329.5C783.833,323.167 791.333,320 800,320C808.667,320 816.167,323.167 822.5,329.5C828.833,335.833 832,343.333 832,352C832,360.667 828.833,368.167 822.5,374.5L685.5,512L822.5,649.5C828.833,655.833 832,663.333 832,672C832,680.667 828.833,688.167 822.5,694.5C816.167,700.833 808.667,704 800,704C791.333,704 783.833,700.833 777.5,694.5Z" fill="#FFFFFF" fill-opacity="1">
  </path>
</svg>
